X:1
T:The Soo Ste. Mary's Jail
M:6/8
L:1/8
K:D
 D| E2 F B2 A| B2 A F2 D|F-E D B,2 A,| B,3- B,2 F| B2 c B2 c| B2 B A2 B|\
 ^G2 EA F2| B3- B2 F| B2 cd-B c| B B2A-B c| ^G2 EA F2| B3- BD-E| FFF B2 A|\
 B2 A F2 E/2D/2| F2 D B,2 A,| B,3- B,2||

